symbols/web/crisis_alert/materialsymbolsoutlined/crisis_alert_wght300_40px.svg

<svg xmlns="http://www.w3.org/2000/svg" height="40" width="40"><path d="M20 35.833q-3.292 0-6.167-1.25t-5.021-3.395q-2.145-2.146-3.395-5.021T4.167 20q0-4.417 2.27-8.167Q8.708 8.083 12.625 6q.042.542.125 1.063.083.52.25 1.104-3.167 1.875-4.958 5.021Q6.25 16.333 6.25 20q0 5.75 4 9.75t9.75 4q5.75 0 9.75-4t4-9.75q0-3.667-1.812-6.812-1.813-3.146-4.98-5.021.125-.625.23-1.125.104-.5.145-1.042 3.959 2.083 6.229 5.813 2.271 3.729 2.271 8.187 0 3.292-1.25 6.167t-3.396 5.021q-2.145 2.145-5.02 3.395-2.875 1.25-6.167 1.25Zm0-6.666q-3.833 0-6.5-2.667T10.833 20q0-2.125.917-4t2.625-3.167q.125.417.292.938.166.521.416 1.187-1.041 1-1.604 2.292-.562 1.292-.562 2.75 0 2.958 2.062 5.021 2.063 2.062 5.021 2.062 2.917 0 5-2.062 2.083-2.063 2.083-5.021 0-1.458-.562-2.75-.563-1.292-1.646-2.292.208-.583.292-.833.083-.25.416-1.333 1.709 1.291 2.646 3.187.938 1.896.938 4.021 0 3.833-2.667 6.5T20 29.167Zm-1.208-15.625q-1.542-4.625-1.938-6.25-.396-1.625-.396-3.125t1.021-2.521Q18.5.625 20 .625t2.521 1.021q1.021 1.021 1.021 2.521t-.396 3.125q-.396 1.625-1.938 6.25ZM20 22.708q-1.125 0-1.917-.791-.791-.792-.791-1.917t.791-1.917q.792-.791 1.917-.791t1.917.791q.791.792.791 1.917t-.791 1.917q-.792.791-1.917.791Z"/></svg>

<svg xmlns="http://www.w3.org/2000/svg" height="40" width="40"><path d="M20 35.833Q16.708 35.833 13.833 34.583Q10.958 33.333 8.812 31.188Q6.667 29.042 5.417 26.167Q4.167 23.292 4.167 20Q4.167 15.583 6.437 11.833Q8.708 8.083 12.625 6Q12.667 6.542 12.75 7.063Q12.833 7.583 13 8.167Q9.833 10.042 8.042 13.188Q6.25 16.333 6.25 20Q6.25 25.75 10.25 29.75Q14.25 33.75 20 33.75Q25.75 33.75 29.75 29.75Q33.75 25.75 33.75 20Q33.75 16.333 31.938 13.188Q30.125 10.042 26.958 8.167Q27.083 7.542 27.188 7.042Q27.292 6.542 27.333 6Q31.292 8.083 33.562 11.813Q35.833 15.542 35.833 20Q35.833 23.292 34.583 26.167Q33.333 29.042 31.187 31.188Q29.042 33.333 26.167 34.583Q23.292 35.833 20 35.833ZM20 29.167Q16.167 29.167 13.5 26.5Q10.833 23.833 10.833 20Q10.833 17.875 11.75 16Q12.667 14.125 14.375 12.833Q14.5 13.25 14.667 13.771Q14.833 14.292 15.083 14.958Q14.042 15.958 13.479 17.25Q12.917 18.542 12.917 20Q12.917 22.958 14.979 25.021Q17.042 27.083 20 27.083Q22.917 27.083 25 25.021Q27.083 22.958 27.083 20Q27.083 18.542 26.521 17.25Q25.958 15.958 24.875 14.958Q25.083 14.375 25.167 14.125Q25.25 13.875 25.583 12.792Q27.292 14.083 28.229 15.979Q29.167 17.875 29.167 20Q29.167 23.833 26.5 26.5Q23.833 29.167 20 29.167ZM18.792 13.542Q17.25 8.917 16.854 7.292Q16.458 5.667 16.458 4.167Q16.458 2.667 17.479 1.646Q18.5 0.625 20 0.625Q21.5 0.625 22.521 1.646Q23.542 2.667 23.542 4.167Q23.542 5.667 23.146 7.292Q22.75 8.917 21.208 13.542ZM20 22.708Q18.875 22.708 18.083 21.917Q17.292 21.125 17.292 20Q17.292 18.875 18.083 18.083Q18.875 17.292 20 17.292Q21.125 17.292 21.917 18.083Q22.708 18.875 22.708 20Q22.708 21.125 21.917 21.917Q21.125 22.708 20 22.708Z"/></svg>
